!!!!SEGMENT: 074-1c-LW-9-011.krn
!!!COM: Fryderyk Chopin
!!!OTL: Zwei Leichen
!!!OPS: op. 74
!!!PTL: 17 | POLISH SONGS | BY | WITWICKI, ZALESKI, MICKIEWICZ, ETC, | FOR | A SOPRANO OR TENOR VOICE | WITH ACCOMPANIMENT FOR THE | Pianoforte
!!!PPR: Stanley Lucas, Weber & Co.
!!!PPP: London
!!!NIFC-rismID: BRAK
!!!NIFC-shelfmark: PL-Wbfc 6139/n
!!!OMD: ALLEGRETTO. M. M. [quarter] = 100
!!!system-decoration: (s1){(s2,s3)}
**kern	**kern	**dynam	**kern	**text	**dynam
*part2	*part2	*part2	*part1	*	*
*staff3	*staff2	*	*staff1	*	*
*	*I"PIANO.	*	*I"VOICE.	*	*
*clefF4	*clefG2	*	*clefG2	*	*
*k[b-]	*k[b-]	*	*k[b-]	*	*
*d:	*d:	*	*d:	*	*
*M2/4	*M2/4	*	*M2/4	*	*
=1	=1	=1	=1	=1	=1
*	*	*	*	*^	*
!LO:TX:a:i:t=legato.	!	!	!	!	!	!
!	!	!LO:DY:rj	!	!	!	!
4A 4D	4a 4f 4d	p	4a	Dull	Horch,	.
8AL 8D	8aL 8f 8d	.	8a	o'er	wie	.
8AJ 8D	8gJ 8e 8d	.	8g	the	so	.
=2	=2	=2	=2	=2	=2	=2
4A 4D	4a 4f 4d	.	4a	val-	dumpf	.
4G 4GG	4b- 4g 4d	.	8b-/	-ley	die	.
.	.	.	8b-/	a	.	.
=3	=3	=3	=3	=3	=3	=3
!	!	!	!	!	!	!LO:HP:a
8FF/L	8aL 8d 8A	.	8a	knell	Tod-	>
8GG	8g 8e 8B-	.	8g	its	-ten-	.
8AA	8f 8d 8A	.	8f	sound	-glo-	.
8GJ 8AA	8eJ 8c#X 8A	.	8e	is	-cke	]
=4	=4	=4	=4	=4	=4	=4
!	!	!	!	!	!	!LO:HP:a
4.F 4.D	4.d 4.A	.	4.f	send-	hal-	<
8D	8g 8e 8B-	.	8g	-ing,	-let	[
!!LO:LB:g=original
=5	=5	=5	=5	=5	=5	=5
4D	4f 4d 4A	.	4a	Sad-	sieh',	.
8AL 8D	8ddL 8f#X 8c	.	8dd	-ly	wie	.
8DJ	8ccJ 8f# 8c	.	8cc	a	ein	.
=6	=6	=6	=6	=6	=6	=6
4G	4b- 4g 4d	.	8cc/	fun'	Lei-	.
.	.	.	8b-/	ral	-chen-	.
8DL	8aL 8fn 8d	.	8a	train	-zug	.
8GJ	8b-J 8g 8d	.	8b-/	its	da-	.
=7	=7	=7	=7	=7	=7	=7
*	*^	*	*	*	*	*
4D	4a 4f 4d	4rdyy	.	(<8aL	way	-her	.
.	.	.	.	16gJk)	.	.	.
.	.	.	.	16f	is	so	.
8GG/L	4e	8d\L 8B-\	.	8e	yon-	trau-	.
8AAJ	.	8c#XJ 8G	.	8f	-der	-rig	.
*	*v	*v	*	*	*	*	*
=8	=8	=8	=8	=8	=8	=8
4.DD	4.d 4.A 4.F	.	(<8dL	wend-	wal-	.
.	.	.	16fL	.	.	.
.	.	.	16eJJ)	.	.	.
.	.	.	4d	-ing;	-let,	.
8r	8r	.	.	.	.	.
!!LO:LB:g=original
=9	=9	=9	=9	=9	=9	=9
!LO:TX:a:i:t=poco	!	!	!	!	!	!
4C	8eL 8B-	.	4e	Pale	ein	.
.	8c	.	.	.	.	.
4FF	8f 8A	<	8f	as	schö-	.
.	8cJ	.	8f	a	-nes	.
=10	=10	=10	=10	=10	=10	=10
*	*^	*	*	*	*	*
4C	8gL 8e 8B-	4reeyy	.	(<8gL	li-	Mäd-	.
.	8cJ	.	.	16fL	.	.	.
.	.	.	.	16gJJ)	.	.	.
4F 4FF	4a	8fL 8A	.	8a	-ly	-chen	.
.	.	8e-XJ	.	8r	.	.	.
*	*v	*v	*	*	*	*	*
=11	=11	=11	=11	=11	=11	=11
4F 4BB-	4b- 4d	.	16b-/	a	lie-	.
.	.	.	8a	maid-	-get	.
.	.	.	16g	-en	auf	.
8FL 8BB-	8fL 8d	.	8f	fair	wei-	.
8FJ 8BB-	8gJ 8d-X	.	8g	is	-ssen	.
=12	=12	=12	=12	=12	=12	=12
2F 2FF	4a 4c	.	4a	ly-	Kis-	.
.	8fL 8A	>	8a	-ing,	-sen,	.
.	8cJ	.	8r	.	.	.
!!LO:LB:g=original
=13	=13	=13	=13	=13	=13	=13
!	!	!LO:DY:rj	!	!	!	!
4AA	8c#XL 8G	p	4c#X	My	jung	.
.	8AJ	.	.	.	.	.
4D	8dL 8F	.	8d	heart	war	.
.	8AJ	.	8d	is	ihr	.
=14	=14	=14	=14	=14	=14	=14
!	!	!	!	!	!	!LO:HP:a
4AA	8eL 8c#X 8G	.	(<8eL	brok-	Her-	<
.	8AJ	.	16dL	.	.	.
.	.	.	16eJJ)	.	.	[[
4D 4DD	8fL 8d 8F	.	8f	-en''	-ze	.
.	8AJ	.	8r	.	.	.
=15	=15	=15	=15	=15	=15	=15
!	!	!	!	!	!	!LO:HP:a
4G/ 4GG/	4e 4B-	.	16a	she	und	>
.	.	.	8g	wail'd	hat	.
.	.	.	16f	as	doch	.
8EL/< 8AA/	8c#XL 8G	.	8e	she	bre-	]]
8E/J 8AA/	8c#J 8G	.	8f	was	-chen	.
=16	=16	=16	=16	=16	=16	=16
4DD	8dL 8F	.	4d	dy-	müs-	.
.	8fJ 8A	.	.	.	.	.
4D	4d 8F	.	8dd	-ing.	-sen.	.
.	.	.	8r	.	.	.
!!LO:PB:g=original
==17|:	=17	=17	=17	=17	=17	=17
*	*	*	*	*	*^	*
*	*	*	*	*	*	*^	*
!	!LO:TX:b:i:t=legato.	!LO:DY:rj	!	!	!	!	!	!
4A 4D	4a 4f 4d	p	4a	Far	They	Fer-	Zwei	.
8AL 8D	8aL 8f 8d	.	8a	off	two	-ne	lieb-	.
8AJ 8D	8gJ 8e 8d	.	8g	from	haf	von	-ten	.
=18	=18	=18	=18	=18	=18	=18	=18	=18
4A 4D	4a 4f 4d	.	4a	her,	lov'd	ihr,	sich	.
4G 4GG	4b- 4g 4d	.	8b-/	'neath	with	dort	und	.
.	.	.	8b-/	a	a	auf	.	.
=19	=19	=19	=19	=19	=19	=19	=19	=19
!	!	!	!	!	!	!	!	!LO:HP:a
8FFL	8aL 8d 8A	.	8a	sky	love	trost-	soll-	>
8GG	8g 8e 8B-	.	8g	with	they	-lost	-ten	.
8AA	8f 8d 8A	.	8f	bat-	might	ö-	sich	.
8GJ 8AA	8eJ 8c#X 8A	.	8e	-tle	not	-der	nicht	]
=20	=20	=20	=20	=20	=20	=20	=20	=20
!	!	!	!	!	!	!	!	!LO:HP:a
4.F 4.D	4.d 4.A	.	4.f	clud-	cher-	Hai-	lie-	<
8D	8g 8e 8B-	.	8g	-ed,	-ish,	-de,	-ben,	[
!!LO:LB:g=original
=21	=21	=21	=21	=21	=21	=21	=21	=21
4D	4f 4d 4A	.	4a	Li-	They	liegt	wa-	.
8AL 8D	8ddL 8f#X 8c	.	8dd	-eth	two	ein	-ren	.
8DJ	8ccJ 8f# 8c	.	8cc	a	were	Sol	.	ge-
=22	=22	=22	=22	=22	=22	=22	=22	=22
*	*	*	*^	*	*	*	*	*
4G	4b- 4g 4d	.	8cc	8ccL	sol-	part-	dat	-trennt	.
.	.	.	8b-	8b-J	-dier,	.	.	.	.
8DL	8aL 8fn 8d	.	8a	4ryy	in	-ed,	todt	und	.
8GJ	8b-J 8g 8d	.	8b-	.	his	and	in	sind	.
*	*	*	*v	*v	*	*	*	*	*
=23	=23	=23	=23	=23	=23	=23	=23	=23
*	*^	*	*	*	*	*	*	*
4D	4a 4f 4d	4rdyy	.	(<8aL	bloo-	all	blu-	treu	.
.	.	.	.	16gkJ)	.	.	.	.	.
.	.	.	.	16f	-dy	but	.	ein-	.
8GGL	4e	8dL 8B-	.	8e	cloak	love	-ti-	-an-	.
8AAJ	.	8c#XJ 8G	.	8f	en-	did	-gem	-der	.
*	*v	*v	*	*	*	*	*	*	*
=24	=24	=24	=24	=24	=24	=24	=24	=24
4.DD/	4.d 4.A 4.F	.	(<8dL	-shrou-	per-	Klei-	blie-	.
.	.	.	16fL	.	.	.	.	.
.	.	.	16eJJ)	.	.	.	.	.
.	.	.	4d	-ded	-ish;	-de,	-ben,	.
8r	8r	.	.	.	.	.	.	.
!!LO:LB:g=original
=25	=25	=25	=25	=25	=25	=25	=25	=25
!LO:TX:a:i:t=poco	!	!	!	!	!	!	!	!
4C	8eL 8B-	.	4e	Mark	No	sieh	doch,	.
.	8c	.	.	.	.	.	.	.
4FF	8f 8A	<	8f	how	eye	wie	des-	.
.	8cJ	.	8f	the	be-	die	-sen	.
=26	=26	=26	=26	=26	=26	=26	=26	=26
*	*^	*	*	*	*	*	*	*
4C	8gL 8e 8B-	4reeyy	.	(<\8g^L	ca-	-held	Ad-	Au-	<
.	8cJ	.	.	16fL	.	.	.	.	.
.	.	.	.	16gJJ)	.	.	.	.	.
4F 4FF	4a	8fL 8A	.	8a	-gle	it,	-ler	-ge	[
.	.	8e-XJ	.	8r	.	.	.	.	.
*	*v	*v	*	*	*	*	*	*	*
=27	=27	=27	=27	=27	=27	=27	=27	=27
4F 4BB-	4b- 4d	.	16b-/	a-	the	ü-	sie-	>
.	.	.	8a	-bove	stroke	-ber	-het	.
.	.	.	16g	the	that	der	die	.
8FL 8BB-	8fL 8d	.	8f	corpse	then	Lei-	tief-	.
8FJ 8BB-	8gJ 8d-X	.	8g	is	did	-che	-sten	]
=28	=28	=28	=28	=28	=28	=28	=28	=28
2F 2FF	4a 4c	.	4a	wheel-	wound	wei-	Wun-	.
.	8fL 8A	>	8a	-ing,	them,	-len,	-den,	.
.	8cJ	.	8r	.	.	.	.	.
!!LO:LB:g=original
=29	=29	=29	=29	=29	=29	=29	=29	=29
!	!	!LO:DY:rj	!	!	!	!	!	!
4AA	8c#XL 8G	p	4c#X	While	That	horch,	der	.
.	8AJ	.	.	.	.	.	.	.
4D	8dL 8F	.	8d	close	now	wie	hat	.
.	8AJ	.	8d	a-	to-	die	dort	.
=30	=30	=30	=30	=30	=30	=30	=30	=30
!	!	!	!	!	!	!	!	!LO:HP:a
4AA	8eL 8c#X 8G	.	(<8eL	-round	-ge-	Wöl-	o-	<
.	8AJ	.	16dL	.	.	.	.	.
.	.	.	16eJJ)	.	.	.	.	[[
4D 4DD	8fL 8d 8F	.	4f	-it	-ther	-fe	-ben	.
.	8AJ	.	.	.	.	.	.	.
=31	=31	=31	=31	=31	=31	=31	=31	=31
!	!	!	!	!	!	!	!	!LO:HP:a
4G 4GG	4e 4B-	.	16a	the	for	schau-	auf	>
.	.	.	8g	fam-	e-	-rig	e-	.
.	.	.	16f	-ish'd	-ver-	da-	-wig	.
8E/L 8AA/	8c#XL 8G	.	8e	wolves	-more	-zwi-	sie	]]
8EJ 8AA	8c#J 8G	.	8f	are	hath	-schen	ver-	.
=32	=32	=32	=32	=32	=32	=32	=32	=32
4DD/	8dL 8F	.	4d	steal-	bound	heu-	-bun-	.
.	8f 8AJ	.	.	.	.	.	.	.
4D	4d 4F	.	8dd	-ing.	them.	-len!	-den.	.
.	.	.	8r	.	.	.	.	.
*	*	*	*	*	*v	*v	*v	*
==:|	==	==	==	==	==	==
*-	*-	*-	*-	*-	*-	*-
!!title: @{OTL}; @{OPS} @{ONM} publisher: @{PPR}
!!!RDF**kern: > = above
!!!RDF**kern: < = below
!!!RDF**dynam: < = "cres:", 'fontstyle="italic"
!!!RDF**dynam: > = "dim:", 'fontstyle="italic"
!!!ENC: Jędrzej Mróz
!!!END: 2020-01-29
!!!EED: 
!!!EST: 2020
